images/11949164.svg

<?xml version="1.0" encoding="UTF-8"?>
<svg xmlns="http://www.w3.org/2000/svg" xmlns:xlink="http://www.w3.org/1999/xlink" width="300pt" height="300pt" viewBox="0 0 300 300" version="1.1">
<defs>
<g>
<symbol overflow="visible" id="glyph0-0">
<path style="stroke:none;" d="M 0.453125 1.59375 L 0.453125 -6.34375 L 4.953125 -6.34375 L 4.953125 1.59375 Z M 0.953125 1.09375 L 4.453125 1.09375 L 4.453125 -5.84375 L 0.953125 -5.84375 Z M 0.953125 1.09375 "/>
</symbol>
<symbol overflow="visible" id="glyph0-1">
<path style="stroke:none;" d="M 0.890625 -6.5625 L 2.078125 -6.5625 L 4.984375 -1.078125 L 4.984375 -6.5625 L 5.84375 -6.5625 L 5.84375 0 L 4.65625 0 L 1.75 -5.484375 L 1.75 0 L 0.890625 0 Z M 0.890625 -6.5625 "/>
</symbol>
<symbol overflow="visible" id="glyph0-2">
<path style="stroke:none;" d="M 0.890625 -6.5625 L 4.65625 -6.5625 L 4.65625 -5.8125 L 1.765625 -5.8125 L 1.765625 -3.875 L 4.375 -3.875 L 4.375 -3.140625 L 1.765625 -3.140625 L 1.765625 0 L 0.890625 0 Z M 0.890625 -6.5625 "/>
</symbol>
</g>
</defs>
<g id="surface50121">
<rect x="0" y="0" width="300" height="300" style="fill:rgb(100%,100%,100%);fill-opacity:1;stroke:none;"/>
<path style="fill:none;stroke-width:1;stroke-linecap:butt;stroke-linejoin:miter;stroke:rgb(0%,0%,0%);stroke-opacity:1;stroke-miterlimit:10;" d="M 129.25 161.394531 L 129.25 161.394531 M 132.140625 162.199219 L 132.242188 161.164062 M 135.027344 163.007812 L 135.230469 160.933594 M 137.917969 163.816406 L 138.222656 160.703125 M 140.808594 164.621094 L 141.214844 160.472656 M 143.695312 165.429688 L 144.207031 160.242188 M 146.585938 166.238281 L 147.195312 160.011719 M 149.476562 167.042969 L 150.1875 159.78125 M 152.066406 167.769531 L 152.871094 159.574219 "/>
<path style="fill:none;stroke-width:1.2;stroke-linecap:butt;stroke-linejoin:miter;stroke:rgb(0%,0%,100%);stroke-opacity:1;stroke-miterlimit:10;" d="M 161.8125 142.292969 L 157.140625 152.980469 "/>
<path style="fill:none;stroke-width:1.2;stroke-linecap:butt;stroke-linejoin:miter;stroke:rgb(0%,0%,0%);stroke-opacity:1;stroke-miterlimit:10;" d="M 157.140625 152.980469 L 152.46875 163.671875 "/>
<path style="fill:none;stroke-width:1.2;stroke-linecap:butt;stroke-linejoin:miter;stroke:rgb(0%,0%,0%);stroke-opacity:1;stroke-miterlimit:10;" d="M 129.25 161.394531 L 109.125 173.199219 "/>
<path style="fill:none;stroke-width:1.2;stroke-linecap:butt;stroke-linejoin:miter;stroke:rgb(0%,0%,0%);stroke-opacity:1;stroke-miterlimit:10;" d="M 124.242188 138.605469 L 129.25 161.394531 "/>
<path style="fill:none;stroke-width:1.2;stroke-linecap:butt;stroke-linejoin:miter;stroke:rgb(0%,0%,0%);stroke-opacity:1;stroke-miterlimit:10;" d="M 109.125 173.199219 L 95.78125 155.300781 "/>
<path style="fill:none;stroke-width:1.2;stroke-linecap:butt;stroke-linejoin:miter;stroke:rgb(0%,0%,0%);stroke-opacity:1;stroke-miterlimit:10;" d="M 109.125 173.199219 L 106.847656 196.417969 "/>
<path style="fill:none;stroke-width:1.2;stroke-linecap:butt;stroke-linejoin:miter;stroke:rgb(0%,0%,0%);stroke-opacity:1;stroke-miterlimit:10;" d="M 95.78125 155.300781 L 118.359375 161.183594 "/>
<path style="fill:none;stroke-width:1.2;stroke-linecap:butt;stroke-linejoin:miter;stroke:rgb(0%,0%,0%);stroke-opacity:1;stroke-miterlimit:10;" d="M 95.78125 155.300781 L 75.660156 167.105469 "/>
<path style="fill:none;stroke-width:1.2;stroke-linecap:butt;stroke-linejoin:miter;stroke:rgb(0%,0%,0%);stroke-opacity:1;stroke-miterlimit:10;" d="M 101.664062 132.722656 L 95.78125 155.300781 "/>
<path style="fill:none;stroke-width:1.2;stroke-linecap:butt;stroke-linejoin:miter;stroke:rgb(0%,0%,0%);stroke-opacity:1;stroke-miterlimit:10;" d="M 118.359375 161.183594 L 124.242188 138.605469 "/>
<path style="fill:none;stroke-width:1.2;stroke-linecap:butt;stroke-linejoin:miter;stroke:rgb(0%,0%,0%);stroke-opacity:1;stroke-miterlimit:10;" d="M 124.242188 138.605469 L 101.664062 132.722656 "/>
<path style="fill:none;stroke-width:1.2;stroke-linecap:butt;stroke-linejoin:miter;stroke:rgb(0%,0%,0%);stroke-opacity:1;stroke-miterlimit:10;" d="M 124.242188 138.605469 L 144.367188 126.800781 "/>
<path style="fill:none;stroke-width:1.2;stroke-linecap:butt;stroke-linejoin:miter;stroke:rgb(0%,0%,0%);stroke-opacity:1;stroke-miterlimit:10;" d="M 144.367188 126.800781 L 153.089844 134.546875 "/>
<path style="fill:none;stroke-width:1.2;stroke-linecap:butt;stroke-linejoin:miter;stroke:rgb(0%,0%,100%);stroke-opacity:1;stroke-miterlimit:10;" d="M 153.089844 134.546875 L 161.8125 142.292969 "/>
<path style=" stroke:none;fill-rule:nonzero;fill:rgb(0%,0%,0%);fill-opacity:1;" d="M 144.367188 126.800781 L 150.742188 103.984375 L 142.546875 103.179688 Z M 144.367188 126.800781 "/>
<path style="fill:none;stroke-width:1.2;stroke-linecap:butt;stroke-linejoin:miter;stroke:rgb(0%,0%,100%);stroke-opacity:1;stroke-miterlimit:10;" d="M 161.8125 142.292969 L 173.203125 139.789062 "/>
<path style="fill:none;stroke-width:1.2;stroke-linecap:butt;stroke-linejoin:miter;stroke:rgb(0%,0%,0%);stroke-opacity:1;stroke-miterlimit:10;" d="M 173.203125 139.789062 L 184.597656 137.285156 "/>
<path style=" stroke:none;fill-rule:nonzero;fill:rgb(100%,100%,100%);fill-opacity:1;" d="M 158.8125 136.792969 L 165.8125 136.792969 L 165.8125 147.792969 L 158.8125 147.792969 Z M 158.8125 136.792969 "/>
<g style="fill:rgb(0%,0%,100%);fill-opacity:1;">
  <use xlink:href="#glyph0-1" x="158.8125" y="145.456055"/>
</g>
<path style="fill:none;stroke-width:1.2;stroke-linecap:butt;stroke-linejoin:miter;stroke:rgb(0%,0%,0%);stroke-opacity:1;stroke-miterlimit:10;" d="M 184.597656 137.285156 L 200.328125 154.515625 "/>
<path style="fill:none;stroke-width:1.2;stroke-linecap:butt;stroke-linejoin:miter;stroke:rgb(0%,0%,0%);stroke-opacity:1;stroke-miterlimit:10;" d="M 200.328125 154.515625 L 193.273438 176.753906 "/>
<path style="fill:none;stroke-width:1.2;stroke-linecap:butt;stroke-linejoin:miter;stroke:rgb(0%,0%,0%);stroke-opacity:1;stroke-miterlimit:10;" d="M 204.855469 158.398438 L 199.210938 176.1875 "/>
<path style="fill:none;stroke-width:1.2;stroke-linecap:butt;stroke-linejoin:miter;stroke:rgb(0%,0%,0%);stroke-opacity:1;stroke-miterlimit:10;" d="M 223.113281 149.507812 L 200.328125 154.515625 "/>
<path style="fill:none;stroke-width:1.2;stroke-linecap:butt;stroke-linejoin:miter;stroke:rgb(0%,0%,0%);stroke-opacity:1;stroke-miterlimit:10;" d="M 193.273438 176.753906 L 209.003906 193.980469 "/>
<path style="fill:none;stroke-width:1.2;stroke-linecap:butt;stroke-linejoin:miter;stroke:rgb(0%,0%,0%);stroke-opacity:1;stroke-miterlimit:10;" d="M 209.003906 193.980469 L 231.789062 188.972656 "/>
<path style="fill:none;stroke-width:1.2;stroke-linecap:butt;stroke-linejoin:miter;stroke:rgb(0%,0%,0%);stroke-opacity:1;stroke-miterlimit:10;" d="M 210.101562 188.121094 L 228.332031 184.113281 "/>
<path style="fill:none;stroke-width:1.2;stroke-linecap:butt;stroke-linejoin:miter;stroke:rgb(0%,0%,0%);stroke-opacity:1;stroke-miterlimit:10;" d="M 231.789062 188.972656 L 238.84375 166.734375 "/>
<path style="fill:none;stroke-width:1.2;stroke-linecap:butt;stroke-linejoin:miter;stroke:rgb(0%,0%,0%);stroke-opacity:1;stroke-miterlimit:10;" d="M 231.789062 188.972656 L 247.519531 206.203125 "/>
<path style="fill:none;stroke-width:1.2;stroke-linecap:butt;stroke-linejoin:miter;stroke:rgb(0%,0%,0%);stroke-opacity:1;stroke-miterlimit:10;" d="M 238.84375 166.734375 L 223.113281 149.507812 "/>
<path style="fill:none;stroke-width:1.2;stroke-linecap:butt;stroke-linejoin:miter;stroke:rgb(0%,0%,0%);stroke-opacity:1;stroke-miterlimit:10;" d="M 233.21875 168.714844 L 220.632812 154.929688 "/>
<path style="fill:none;stroke-width:1.2;stroke-linecap:butt;stroke-linejoin:miter;stroke:rgb(0%,0%,0%);stroke-opacity:1;stroke-miterlimit:10;" d="M 247.519531 206.203125 L 255.386719 214.816406 "/>
<path style="fill:none;stroke-width:1.2;stroke-linecap:butt;stroke-linejoin:miter;stroke:rgb(20%,80%,80%);stroke-opacity:1;stroke-miterlimit:10;" d="M 255.386719 214.816406 L 263.25 223.433594 "/>
<path style="fill:none;stroke-width:1.2;stroke-linecap:butt;stroke-linejoin:miter;stroke:rgb(0%,0%,0%);stroke-opacity:1;stroke-miterlimit:10;" d="M 247.519531 206.203125 L 238.90625 214.070312 "/>
<path style="fill:none;stroke-width:1.2;stroke-linecap:butt;stroke-linejoin:miter;stroke:rgb(20%,80%,80%);stroke-opacity:1;stroke-miterlimit:10;" d="M 238.90625 214.070312 L 230.289062 221.933594 "/>
<path style="fill:none;stroke-width:1.2;stroke-linecap:butt;stroke-linejoin:miter;stroke:rgb(0%,0%,0%);stroke-opacity:1;stroke-miterlimit:10;" d="M 247.519531 206.203125 L 256.136719 198.335938 "/>
<path style="fill:none;stroke-width:1.2;stroke-linecap:butt;stroke-linejoin:miter;stroke:rgb(20%,80%,80%);stroke-opacity:1;stroke-miterlimit:10;" d="M 256.136719 198.335938 L 264.75 190.472656 "/>
<path style=" stroke:none;fill-rule:nonzero;fill:rgb(100%,100%,100%);fill-opacity:1;" d="M 260.25 217.933594 L 266.25 217.933594 L 266.25 228.933594 L 260.25 228.933594 Z M 260.25 217.933594 "/>
<g style="fill:rgb(20%,80%,80%);fill-opacity:1;">
  <use xlink:href="#glyph0-2" x="260.25" y="226.59668"/>
</g>
<path style=" stroke:none;fill-rule:nonzero;fill:rgb(100%,100%,100%);fill-opacity:1;" d="M 224.289062 216.433594 L 230.289062 216.433594 L 230.289062 227.433594 L 224.289062 227.433594 Z M 224.289062 216.433594 "/>
<g style="fill:rgb(20%,80%,80%);fill-opacity:1;">
  <use xlink:href="#glyph0-2" x="224.289062" y="225.09668"/>
</g>
<path style=" stroke:none;fill-rule:nonzero;fill:rgb(100%,100%,100%);fill-opacity:1;" d="M 261.75 184.972656 L 267.75 184.972656 L 267.75 195.972656 L 261.75 195.972656 Z M 261.75 184.972656 "/>
<g style="fill:rgb(20%,80%,80%);fill-opacity:1;">
  <use xlink:href="#glyph0-2" x="261.75" y="193.635742"/>
</g>
<path style="fill:none;stroke-width:1.2;stroke-linecap:butt;stroke-linejoin:miter;stroke:rgb(0%,0%,0%);stroke-opacity:1;stroke-miterlimit:10;" d="M 146.644531 103.582031 L 167.890625 93.945312 "/>
<path style="fill:none;stroke-width:1.2;stroke-linecap:butt;stroke-linejoin:miter;stroke:rgb(0%,0%,0%);stroke-opacity:1;stroke-miterlimit:10;" d="M 146.5 97.621094 L 163.5 89.910156 "/>
<path style="fill:none;stroke-width:1.2;stroke-linecap:butt;stroke-linejoin:miter;stroke:rgb(0%,0%,0%);stroke-opacity:1;stroke-miterlimit:10;" d="M 127.675781 90 L 146.644531 103.582031 "/>
<path style="fill:none;stroke-width:1.2;stroke-linecap:butt;stroke-linejoin:miter;stroke:rgb(0%,0%,0%);stroke-opacity:1;stroke-miterlimit:10;" d="M 167.890625 93.945312 L 170.167969 70.726562 "/>
<path style="fill:none;stroke-width:1.2;stroke-linecap:butt;stroke-linejoin:miter;stroke:rgb(0%,0%,0%);stroke-opacity:1;stroke-miterlimit:10;" d="M 170.167969 70.726562 L 151.199219 57.144531 "/>
<path style="fill:none;stroke-width:1.2;stroke-linecap:butt;stroke-linejoin:miter;stroke:rgb(0%,0%,0%);stroke-opacity:1;stroke-miterlimit:10;" d="M 165.078125 73.832031 L 149.902344 62.964844 "/>
<path style="fill:none;stroke-width:1.2;stroke-linecap:butt;stroke-linejoin:miter;stroke:rgb(0%,0%,0%);stroke-opacity:1;stroke-miterlimit:10;" d="M 151.199219 57.144531 L 129.953125 66.78125 "/>
<path style="fill:none;stroke-width:1.2;stroke-linecap:butt;stroke-linejoin:miter;stroke:rgb(0%,0%,0%);stroke-opacity:1;stroke-miterlimit:10;" d="M 129.953125 66.78125 L 127.675781 90 "/>
<path style="fill:none;stroke-width:1.2;stroke-linecap:butt;stroke-linejoin:miter;stroke:rgb(0%,0%,0%);stroke-opacity:1;stroke-miterlimit:10;" d="M 135.1875 69.640625 L 133.367188 88.214844 "/>
<path style="fill:none;stroke-width:1.2;stroke-linecap:butt;stroke-linejoin:miter;stroke:rgb(0%,0%,0%);stroke-opacity:1;stroke-miterlimit:10;" d="M 75.660156 167.105469 L 55.375 155.582031 "/>
<path style="fill:none;stroke-width:1.2;stroke-linecap:butt;stroke-linejoin:miter;stroke:rgb(0%,0%,0%);stroke-opacity:1;stroke-miterlimit:10;" d="M 70.917969 170.726562 L 54.691406 161.507812 "/>
<path style="fill:none;stroke-width:1.2;stroke-linecap:butt;stroke-linejoin:miter;stroke:rgb(0%,0%,0%);stroke-opacity:1;stroke-miterlimit:10;" d="M 75.820312 190.4375 L 75.660156 167.105469 "/>
<path style="fill:none;stroke-width:1.2;stroke-linecap:butt;stroke-linejoin:miter;stroke:rgb(0%,0%,0%);stroke-opacity:1;stroke-miterlimit:10;" d="M 55.375 155.582031 L 35.25 167.386719 "/>
<path style="fill:none;stroke-width:1.2;stroke-linecap:butt;stroke-linejoin:miter;stroke:rgb(0%,0%,0%);stroke-opacity:1;stroke-miterlimit:10;" d="M 35.25 167.386719 L 35.410156 190.714844 "/>
<path style="fill:none;stroke-width:1.2;stroke-linecap:butt;stroke-linejoin:miter;stroke:rgb(0%,0%,0%);stroke-opacity:1;stroke-miterlimit:10;" d="M 40.753906 169.679688 L 40.882812 188.34375 "/>
<path style="fill:none;stroke-width:1.2;stroke-linecap:butt;stroke-linejoin:miter;stroke:rgb(0%,0%,0%);stroke-opacity:1;stroke-miterlimit:10;" d="M 35.410156 190.714844 L 55.695312 202.242188 "/>
<path style="fill:none;stroke-width:1.2;stroke-linecap:butt;stroke-linejoin:miter;stroke:rgb(0%,0%,0%);stroke-opacity:1;stroke-miterlimit:10;" d="M 55.695312 202.242188 L 75.820312 190.4375 "/>
<path style="fill:none;stroke-width:1.2;stroke-linecap:butt;stroke-linejoin:miter;stroke:rgb(0%,0%,0%);stroke-opacity:1;stroke-miterlimit:10;" d="M 54.929688 196.324219 L 71.03125 186.882812 "/>
<path style="fill:none;stroke-width:1.2;stroke-linecap:butt;stroke-linejoin:miter;stroke:rgb(0%,0%,0%);stroke-opacity:1;stroke-miterlimit:10;" d="M 106.847656 196.417969 L 85.601562 206.054688 "/>
<path style="fill:none;stroke-width:1.2;stroke-linecap:butt;stroke-linejoin:miter;stroke:rgb(0%,0%,0%);stroke-opacity:1;stroke-miterlimit:10;" d="M 106.992188 202.378906 L 89.992188 210.089844 "/>
<path style="fill:none;stroke-width:1.2;stroke-linecap:butt;stroke-linejoin:miter;stroke:rgb(0%,0%,0%);stroke-opacity:1;stroke-miterlimit:10;" d="M 125.816406 210 L 106.847656 196.417969 "/>
<path style="fill:none;stroke-width:1.2;stroke-linecap:butt;stroke-linejoin:miter;stroke:rgb(0%,0%,0%);stroke-opacity:1;stroke-miterlimit:10;" d="M 85.601562 206.054688 L 83.324219 229.273438 "/>
<path style="fill:none;stroke-width:1.2;stroke-linecap:butt;stroke-linejoin:miter;stroke:rgb(0%,0%,0%);stroke-opacity:1;stroke-miterlimit:10;" d="M 83.324219 229.273438 L 102.292969 242.855469 "/>
<path style="fill:none;stroke-width:1.2;stroke-linecap:butt;stroke-linejoin:miter;stroke:rgb(0%,0%,0%);stroke-opacity:1;stroke-miterlimit:10;" d="M 88.414062 226.167969 L 103.589844 237.035156 "/>
<path style="fill:none;stroke-width:1.2;stroke-linecap:butt;stroke-linejoin:miter;stroke:rgb(0%,0%,0%);stroke-opacity:1;stroke-miterlimit:10;" d="M 102.292969 242.855469 L 123.539062 233.21875 "/>
<path style="fill:none;stroke-width:1.2;stroke-linecap:butt;stroke-linejoin:miter;stroke:rgb(0%,0%,0%);stroke-opacity:1;stroke-miterlimit:10;" d="M 123.539062 233.21875 L 125.816406 210 "/>
<path style="fill:none;stroke-width:1.2;stroke-linecap:butt;stroke-linejoin:miter;stroke:rgb(0%,0%,0%);stroke-opacity:1;stroke-miterlimit:10;" d="M 118.304688 230.359375 L 120.125 211.785156 "/>
</g>
</svg>

<svg xmlns="http://www.w3.org/2000/svg" xmlns:xlink="http://www.w3.org/1999/xlink" width="300pt" height="300pt" viewBox="0 0 300 300"><defs><symbol overflow="visible"><path d="M.453 1.594v-7.938h4.5v7.938zm.5-.5h3.5v-6.938h-3.5zm0 0"/></symbol><symbol overflow="visible" id="a"><path d="M.89-6.563H2.08l2.906 5.485v-5.484h.86V0H4.656L1.75-5.484V0H.89zm0 0"/></symbol><symbol overflow="visible" id="b"><path d="M.89-6.563h3.766v.75h-2.89v1.938h2.61v.734h-2.61V0H.89zm0 0"/></symbol></defs><g><path fill="#fff" d="M0 0h300v300H0z"/><path d="M129.25 161.395m2.89.804l.102-1.036m2.785 1.844l.203-2.074m2.688 2.882l.305-3.113m2.586 3.918l.405-4.147m2.48 4.957l.512-5.188m2.38 5.996l.608-6.226m2.282 7.03l.71-7.26m1.88 7.988l.804-8.196" stroke="#000" stroke-miterlimit="10" fill="none"/><path d="M161.813 142.293l-4.672 10.687" stroke-width="1.2" stroke="#00f" stroke-miterlimit="10" fill="none"/><path d="M157.14 152.98l-4.67 10.692M129.25 161.395L109.125 173.2M124.242 138.605l5.008 22.79M109.125 173.2L95.78 155.3M109.125 173.2l-2.277 23.218M95.78 155.3l22.58 5.884M95.78 155.3l-20.12 11.805M101.664 132.723L95.78 155.3M118.36 161.184l5.882-22.58M124.242 138.605l-22.578-5.882M124.242 138.605l20.125-11.804M144.367 126.8l8.723 7.747" stroke-width="1.2" stroke="#000" stroke-miterlimit="10" fill="none"/><path d="M153.09 134.547l8.722 7.746" stroke-width="1.2" stroke="#00f" stroke-miterlimit="10" fill="none"/><path d="M144.367 126.8l6.375-22.816-8.195-.804zm0 0"/><path d="M161.813 142.293l11.39-2.504" stroke-width="1.2" stroke="#00f" stroke-miterlimit="10" fill="none"/><path d="M173.203 139.79l11.395-2.505" stroke-width="1.2" stroke="#000" stroke-miterlimit="10" fill="none"/><path d="M158.813 136.793h7v11h-7zm0 0" fill="#fff"/><use xlink:href="#a" x="158.813" y="145.456" fill="#00f"/><path d="M184.598 137.285l15.73 17.23M200.328 154.516l-7.055 22.238M204.855 158.398l-5.644 17.79M223.113 149.508l-22.785 5.008M193.273 176.754l15.73 17.226M209.004 193.98l22.785-5.007M210.102 188.12l18.23-4.007M231.79 188.973l7.054-22.24M231.79 188.973l15.73 17.23M238.844 166.734l-15.73-17.226M233.22 168.715l-12.587-13.785M247.52 206.203l7.867 8.613" stroke-width="1.2" stroke="#000" stroke-miterlimit="10" fill="none"/><path d="M255.387 214.816l7.863 8.618" stroke-width="1.2" stroke="#3cc" stroke-miterlimit="10" fill="none"/><path d="M247.52 206.203l-8.614 7.867" stroke-width="1.2" stroke="#000" stroke-miterlimit="10" fill="none"/><path d="M238.906 214.07l-8.617 7.864" stroke-width="1.2" stroke="#3cc" stroke-miterlimit="10" fill="none"/><path d="M247.52 206.203l8.617-7.867" stroke-width="1.2" stroke="#000" stroke-miterlimit="10" fill="none"/><path d="M256.137 198.336l8.613-7.863" stroke-width="1.2" stroke="#3cc" stroke-miterlimit="10" fill="none"/><path d="M260.25 217.934h6v11h-6zm0 0" fill="#fff"/><use xlink:href="#b" x="260.25" y="226.597" fill="#3cc"/><path d="M224.29 216.434h6v11h-6zm0 0" fill="#fff"/><use xlink:href="#b" x="224.289" y="225.097" fill="#3cc"/><path d="M261.75 184.973h6v11h-6zm0 0" fill="#fff"/><use xlink:href="#b" x="261.75" y="193.636" fill="#3cc"/><path d="M146.645 103.582l21.246-9.637M146.5 97.62l17-7.71M127.676 90l18.97 13.582M167.89 93.945l2.278-23.218M170.168 70.727l-18.97-13.582M165.078 73.832l-15.176-10.867M151.2 57.145l-21.247 9.636M129.953 66.78L127.676 90M135.188 69.64l-1.82 18.575M75.66 167.105l-20.285-11.523M70.918 170.727l-16.227-9.22M75.82 190.438l-.16-23.333M55.375 155.582L35.25 167.387M35.25 167.387l.16 23.328M40.754 169.68l.13 18.664M35.41 190.715l20.285 11.527M55.695 202.242l20.125-11.804M54.93 196.324l16.1-9.44M106.848 196.418l-21.246 9.637M106.992 202.38l-17 7.71M125.816 210l-18.968-13.582M85.602 206.055l-2.278 23.218M83.324 229.273l18.97 13.582M88.414 226.168l15.176 10.867M102.293 242.855l21.246-9.636M123.54 233.22l2.276-23.22M118.305 230.36l1.82-18.575" stroke-width="1.2" stroke="#000" stroke-miterlimit="10" fill="none"/></g></svg>
